X: 32836
T: Port Chití Rua
R: jig
M: 6/8
K: Amajor
|:aec A2B|cAB ABA|aec ABc|Bcd e/f/ge|
aec A2B|cAB ABA|agf gfe|1 f3 f2g:|2 f3 f2e||
|:caa caa|Bgg Bgg|Aff Aff|efg gfe|
[1 caa caa|Bgg Bgg|fga gfe|f3 f2e:|
[2 aec A2B|cAB ABA|agf gfe|f3 f2g||

